images/vehicles/car-inbound-turn-signal-right.svg

<?xml version="1.0" standalone="no"?><!DOCTYPE svg PUBLIC "-//W3C//DTD SVG 1.1//EN" "http://www.w3.org/Graphics/SVG/1.1/DTD/svg11.dtd"><svg width="288px" height="360px" version="1.1" xmlns="http://www.w3.org/2000/svg" xmlns:xlink="http://www.w3.org/1999/xlink" xml:space="preserve" style="fill-rule:evenodd;clip-rule:evenodd;stroke-linejoin:round;stroke-miterlimit:1.41421;"><g><g id="car-inbound" transform="matrix(1,0,0,1,71.9798,166.584)"><g transform="matrix(1,0,0,1,0,-10.3296)"><path d="M127.589,121.742l13.651,-2.45l2.8,-7.279l-15.261,-2.662l-1.259,6.721l-2.321,2.339l2.39,3.331Z" style="fill:#e4e2dc;fill-rule:nonzero;"/></g><g transform="matrix(1,0,0,1,0,-10.3296)"><path d="M127.604,121.746l-2.327,-3.494l2.259,-2.185l1.269,-6.697l1.297,0.208l6.621,10.502l-9.119,1.666Z" style="fill:#c1bebb;fill-rule:nonzero;"/></g><g transform="matrix(1,0,0,1,0,-10.3296)"><path d="M0,111.919l2.8,7.279l13.651,2.45l2.39,-3.331l-2.321,-2.339l-1.26,-6.72l-15.26,2.661Z" style="fill:#e4e2dc;fill-rule:nonzero;"/></g><g transform="matrix(1,0,0,1,0,-10.3296)"><path d="M16.4668,121.646l2.327,-3.494l-2.259,-2.185l-1.269,-6.697l-1.297,0.208l-6.641,10.531l9.139,1.637Z" style="fill:#c1bebb;fill-rule:nonzero;"/></g><path d="M3.8898,173.884l1.68,19.532l19.321,0l3.991,-19.742l-24.992,0.21Z" style="fill:#5c5e5f;fill-rule:nonzero;"/><path d="M24.0516,173.674l0.84,19.742l5.992,-19.742l-6.832,0Z" style="fill:#2a2b2a;fill-rule:nonzero;"/><path d="M117.358,193.416l19.35,0l1.68,-19.321l-24.993,-0.211l3.963,19.532Z" style="fill:#5c5e5f;fill-rule:nonzero;"/><path d="M111.394,173.884l5.964,19.532l0.869,-19.532l-6.833,0Z" style="fill:#2a2b2a;fill-rule:nonzero;"/><g transform="matrix(1,-3.22153e-17,-3.22153e-17,1.13153,0,-22.926)"><path d="M29.4678,85.9277l-28.118,49.341l2.519,38.615l1.89,0.006l132.637,0.414l3.796,-38.796l-27.505,-49.58l-85.219,0Z" style="fill:#e4e2dc;fill-rule:nonzero;"/></g><g transform="matrix(1,-8.52366e-17,-8.52366e-17,1.348,1.39815e-14,-42.2467)"><path d="M32.958,89.498l-15.6294,22.2696l107.925,1.7053e-13l-13.6694,-22.2696l-78.6264,2.84217e-14Z" style="fill:#313156;fill-rule:nonzero;"/></g><g transform="matrix(1.35601,0,0,1.35601,-9.08601,-43.1939)"><g opacity="0.300003"><path d="M31.0322,89.668l-11.5526,22.1381l20.6308,5.68434e-14l22.0581,-22.1381l-31.1364,-1.42109e-14Z" style="fill:#0f2342;fill-rule:nonzero;"/></g></g><g opacity="0.300003"><path d="M111.625,78.397l-3.65614,5.72697e-12l-30.219,30.0195l47.5041,3.09797e-12l-13.629,-30.0195Z" style="fill:#0a1723;fill-rule:nonzero;"/></g><g transform="matrix(1.34973,0,0,1.34973,-25.576,-42.4401)"><path d="M76.9538,111.768l21.9876,-22.241l-6.14,2.84217e-14l-21.571,22.241l5.72344,1.42109e-13Z" style="fill:#494a72;fill-rule:nonzero;"/></g><g transform="matrix(1,0,0,1,-199.295,-4.4702)"><path d="M200.645,135.387l0.86688,14.5l28.1193,-0.028l1.051,-14.511l-30.0372,0.039Z" style="fill:#f6f1e1;fill-rule:nonzero;"/></g><g transform="matrix(1,0,0,1,-199.295,-4.4702)"><path d="M230.683,135.348l7.571,12.829l-8.623,1.682l1.052,-14.511Z" style="fill:#ef9c74;fill-rule:nonzero;"/></g><g transform="matrix(1,0,0,1,-199.295,-4.4702)"><path d="M341.445,135.387l-1.26346,14.458l-27.344,0.014l-1.052,-14.511l29.6594,0.039Z" style="fill:#f6f1e1;fill-rule:nonzero;"/></g><g transform="matrix(1,0,0,1,-199.295,-4.4702)"><path d="M311.786,135.348l-5.818,12.829l6.87,1.682l-1.052,-14.511Z" style="fill:#ef9c74;fill-rule:nonzero;"/></g><g transform="matrix(1,0,0,1,-199.295,-4.4702)"><path d="M311.753,135.388l-81.06,-0.043l7.604,12.831l67.715,0l5.741,-12.788Z" style="fill:#2a2b2a;fill-rule:nonzero;"/></g><g transform="matrix(1,0,0,1,-199.295,-4.4702)"><path d="M306.083,139.461l-1.926,3.936l-64.038,0.055l-2.592,-4.272l68.556,0.281Z" style="fill:#5c5e5f;fill-rule:nonzero;"/></g></g><g id="car-inbound-turn-signal-right" transform="matrix(1,0,0,1,-62.5263,162.186)"><g transform="matrix(1,0,0,1,-475.309,-0.141308)"><path d="M611.277,135.387l0.926,14.5l27.214,-0.028l1.051,-14.511l-29.191,0.039Z" style="fill:#f6f1e1;fill-rule:nonzero;"/></g><g transform="matrix(1,0,0,1,-475.309,-0.0683538)"><g opacity="0.699997"><path d="M611.276,135.375l0.911,14.51l27.8478,-0.041l-0.4,5.4l-33.8667,0.578l-2,-25.202l37.5667,0l-0.3,4.849l-29.7587,-0.094Z" style="fill:#fec;fill-rule:nonzero;"/></g></g><g transform="matrix(1,0,0,1,-475.309,-0.0683538)"><g opacity="0.300003"><path d="M603.839,130.62l1.927,25.218l33.8692,-0.578l-0.4,5.156l-38.6522,1.166l-3.167,-35.296l44.3193,-0.083l-0.3,4.417l-37.5963,0Z" style="fill:#fec;fill-rule:nonzero;"/></g></g></g></g></svg>

<?xml version="1.0" encoding="UTF-8" standalone="no"?>
<!DOCTYPE svg PUBLIC "-//W3C//DTD SVG 1.1//EN" "http://www.w3.org/Graphics/SVG/1.1/DTD/svg11.dtd">
<svg width="100%" height="100%" viewBox="0 0 192 360" version="1.1" xmlns="http://www.w3.org/2000/svg" xmlns:xlink="http://www.w3.org/1999/xlink" xml:space="preserve" style="fill-rule:evenodd;clip-rule:evenodd;stroke-linejoin:round;stroke-miterlimit:1.41421;">
    <g transform="matrix(1,0,0,1,-48,0)">
        <g id="car-inbound" transform="matrix(1,0,0,1,71.9798,166.584)">
            <g transform="matrix(1,0,0,1,0,-10.3296)">
                <path d="M127.589,121.742L141.24,119.292L144.04,112.013L128.779,109.351L127.52,116.072L125.199,118.411L127.589,121.742Z" style="fill:rgb(228,226,220);fill-rule:nonzero;"/>
            </g>
            <g transform="matrix(1,0,0,1,0,-10.3296)">
                <path d="M127.604,121.746L125.277,118.252L127.536,116.067L128.805,109.37L130.102,109.578L136.723,120.08L127.604,121.746L127.604,121.746Z" style="fill:rgb(193,190,187);fill-rule:nonzero;"/>
            </g>
            <g transform="matrix(1,0,0,1,0,-10.3296)">
                <path d="M0,111.919L2.8,119.198L16.451,121.648L18.841,118.317L16.52,115.978L15.26,109.258L0,111.919Z" style="fill:rgb(228,226,220);fill-rule:nonzero;"/>
            </g>
            <g transform="matrix(1,0,0,1,0,-10.3296)">
                <path d="M16.467,121.646L18.794,118.152L16.535,115.967L15.266,109.27L13.969,109.478L7.328,120.009L16.467,121.646Z" style="fill:rgb(193,190,187);fill-rule:nonzero;"/>
            </g>
            <path d="M3.89,173.884L5.57,193.416L24.891,193.416L28.882,173.674L3.89,173.884L3.89,173.884Z" style="fill:rgb(92,94,95);fill-rule:nonzero;"/>
            <path d="M24.052,173.674L24.892,193.416L30.884,173.674L24.052,173.674Z" style="fill:rgb(42,43,42);fill-rule:nonzero;"/>
            <path d="M117.358,193.416L136.708,193.416L138.388,174.095L113.395,173.884L117.358,193.416Z" style="fill:rgb(92,94,95);fill-rule:nonzero;"/>
            <path d="M111.394,173.884L117.358,193.416L118.227,173.884L111.394,173.884Z" style="fill:rgb(42,43,42);fill-rule:nonzero;"/>
            <g transform="matrix(1,-3.22153e-17,-3.22153e-17,1.13153,0,-22.926)">
                <path d="M29.468,85.928L1.35,135.269L3.869,173.884L5.759,173.89L138.396,174.304L142.192,135.508L114.687,85.928L29.468,85.928L29.468,85.928Z" style="fill:rgb(228,226,220);fill-rule:nonzero;"/>
            </g>
            <g transform="matrix(1,-8.52366e-17,-8.52366e-17,1.348,1.39815e-14,-42.2467)">
                <path d="M32.958,89.498L17.329,111.768L125.254,111.768L111.584,89.498L32.958,89.498L32.958,89.498Z" style="fill:rgb(49,49,86);fill-rule:nonzero;"/>
            </g>
            <g transform="matrix(1.35601,0,0,1.35601,-9.08601,-43.1939)">
                <path d="M31.032,89.668L19.48,111.806L40.11,111.806L62.168,89.668L31.032,89.668L31.032,89.668Z" style="fill:rgb(15,35,66);fill-opacity:0.300003;fill-rule:nonzero;"/>
            </g>
            <path d="M111.625,78.397L107.969,78.397L77.75,108.417L125.254,108.417L111.625,78.397L111.625,78.397Z" style="fill:rgb(10,23,35);fill-opacity:0.300003;fill-rule:nonzero;"/>
            <g transform="matrix(1.34973,0,0,1.34973,-25.576,-42.4401)">
                <path d="M76.954,111.768L98.941,89.527L92.801,89.527L71.23,111.768L76.954,111.768L76.954,111.768Z" style="fill:rgb(73,74,114);fill-rule:nonzero;"/>
            </g>
            <g transform="matrix(1,0,0,1,-199.295,-4.4702)">
                <path d="M200.645,135.387L201.512,149.887L229.631,149.859L230.682,135.348L200.645,135.387L200.645,135.387Z" style="fill:rgb(246,241,225);fill-rule:nonzero;"/>
            </g>
            <g transform="matrix(1,0,0,1,-199.295,-4.4702)">
                <path d="M230.683,135.348L238.254,148.177L229.631,149.859L230.683,135.348Z" style="fill:rgb(239,156,116);fill-rule:nonzero;"/>
            </g>
            <g transform="matrix(1,0,0,1,-199.295,-4.4702)">
                <path d="M341.445,135.387L340.182,149.845L312.838,149.859L311.786,135.348L341.445,135.387L341.445,135.387Z" style="fill:rgb(246,241,225);fill-rule:nonzero;"/>
            </g>
            <g transform="matrix(1,0,0,1,-199.295,-4.4702)">
                <path d="M311.786,135.348L305.968,148.177L312.838,149.859L311.786,135.348Z" style="fill:rgb(239,156,116);fill-rule:nonzero;"/>
            </g>
            <g transform="matrix(1,0,0,1,-199.295,-4.4702)">
                <path d="M311.753,135.388L230.693,135.345L238.297,148.176L306.012,148.176L311.753,135.388L311.753,135.388Z" style="fill:rgb(42,43,42);fill-rule:nonzero;"/>
            </g>
            <g transform="matrix(1,0,0,1,-199.295,-4.4702)">
                <path d="M306.083,139.461L304.157,143.397L240.119,143.452L237.527,139.18L306.083,139.461Z" style="fill:rgb(92,94,95);fill-rule:nonzero;"/>
            </g>
        </g>
        <g id="car-inbound-turn-signal-right" transform="matrix(1,0,0,1,-62.5263,162.186)">
            <g transform="matrix(1,0,0,1,-475.309,-0.141308)">
                <path d="M611.277,135.387L612.203,149.887L639.417,149.859L640.468,135.348L611.277,135.387L611.277,135.387Z" style="fill:rgb(246,241,225);fill-rule:nonzero;"/>
            </g>
            <g transform="matrix(1,0,0,1,-475.309,-0.0683538)">
                <path d="M611.276,135.375L612.187,149.885L640.035,149.844L639.635,155.244L605.768,155.822L603.768,130.62L641.335,130.62L641.035,135.469L611.276,135.375L611.276,135.375Z" style="fill:rgb(255,238,204);fill-opacity:0.699997;fill-rule:nonzero;"/>
            </g>
            <g transform="matrix(1,0,0,1,-475.309,-0.0683538)">
                <path d="M603.839,130.62L605.766,155.838L639.635,155.26L639.235,160.416L600.583,161.582L597.416,126.286L641.735,126.203L641.435,130.62L603.839,130.62Z" style="fill:rgb(255,238,204);fill-opacity:0.300003;fill-rule:nonzero;"/>
            </g>
        </g>
    </g>
</svg>
